apps/www/public/images/logos/publicity/fixed-width/resend.svg

<svg width="180" height="60" viewBox="0 0 180 60" fill="none" xmlns="http://www.w3.org/2000/svg">
<g clip-path="url(#clip0_2080_14279)">
<path d="M44.4534 40.0638V19.9365H53.3669C54.6129 19.9365 55.7439 20.224 56.7598 20.7991C57.7757 21.355 58.5713 22.1121 59.1464 23.0706C59.7406 24.029 60.0377 25.1217 60.0377 26.3485C60.0377 27.5561 59.7406 28.6583 59.1464 29.6551C58.5713 30.6327 57.7757 31.4091 56.7598 31.9841C55.7439 32.5592 54.6129 32.8467 53.3669 32.8467H48.6226V40.0638H44.4534ZM55.8685 40.0638L50.7504 30.9778L55.1784 30.2589L60.8716 40.0926L55.8685 40.0638ZM48.6226 29.3388H53.1656C53.6832 29.3388 54.1337 29.2238 54.5171 28.9938C54.9196 28.7446 55.2263 28.4091 55.4372 27.9874C55.648 27.5465 55.7534 27.0577 55.7534 26.521C55.7534 25.9459 55.6288 25.4475 55.3797 25.0258C55.1305 24.6041 54.7662 24.2782 54.287 24.0482C53.8078 23.799 53.2519 23.6744 52.6193 23.6744H48.6226V29.3388Z" fill="#7E7E7E"/>
<path d="M69.23 40.3513C67.5814 40.3513 66.1341 40.0159 64.8881 39.3449C63.6613 38.6739 62.7029 37.7538 62.0127 36.5846C61.3419 35.4153 61.0063 34.0734 61.0063 32.5591C61.0063 31.3707 61.1981 30.2876 61.5814 29.31C61.9648 28.3324 62.5015 27.489 63.1916 26.7797C63.8817 26.0513 64.6964 25.4954 65.6358 25.112C66.5941 24.7095 67.6293 24.5082 68.7411 24.5082C69.7763 24.5082 70.7346 24.6999 71.6165 25.0832C72.4982 25.4666 73.2554 26.0034 73.888 26.6934C74.5397 27.3644 75.0381 28.1694 75.3832 29.1087C75.7282 30.0288 75.8815 31.0256 75.8432 32.0991L75.8145 33.3642H63.5943L62.9328 30.8627H72.4503L71.9903 31.3802V30.7477C71.9519 30.2301 71.7794 29.77 71.4726 29.3675C71.1852 28.9458 70.8114 28.6199 70.3513 28.3899C69.8913 28.1407 69.3736 28.0161 68.7985 28.0161C67.9552 28.0161 67.2363 28.179 66.642 28.5049C66.0669 28.8308 65.6262 29.31 65.3194 29.9426C65.0127 30.5751 64.8593 31.3419 64.8593 32.2428C64.8593 33.1629 65.0511 33.9584 65.4345 34.6293C65.8371 35.3003 66.3929 35.8274 67.1022 36.2108C67.8305 36.5749 68.6835 36.7571 69.6611 36.7571C70.3321 36.7571 70.9455 36.6517 71.5015 36.4408C72.0573 36.2299 72.6515 35.8657 73.2842 35.3482L75.2394 38.0798C74.6835 38.5782 74.07 38.9999 73.3992 39.3449C72.7282 39.6708 72.0382 39.92 71.3288 40.0925C70.6196 40.265 69.92 40.3513 69.23 40.3513Z" fill="#7E7E7E"/>
<path d="M82.5411 40.3512C81.1225 40.3512 79.8574 40.1212 78.7457 39.6611C77.653 39.1819 76.7713 38.5301 76.1003 37.7059L78.6594 35.5206C79.2345 36.1532 79.8862 36.6133 80.6146 36.9008C81.3431 37.1692 82.0714 37.3033 82.7999 37.3033C83.0874 37.3033 83.3462 37.2746 83.5762 37.2171C83.8254 37.1405 84.0363 37.0446 84.2088 36.9296C84.3813 36.7954 84.506 36.642 84.5826 36.4695C84.6785 36.2779 84.7264 36.0766 84.7264 35.8657C84.7264 35.444 84.5538 35.1181 84.2088 34.8881C84.0171 34.773 83.72 34.6484 83.3174 34.5143C82.9149 34.3609 82.3973 34.198 81.7648 34.0255C80.7871 33.7763 79.9533 33.4888 79.2632 33.1629C78.5923 32.8178 78.0556 32.4345 77.653 32.0127C77.308 31.6102 77.0396 31.1789 76.8479 30.7188C76.6754 30.2396 76.5891 29.7125 76.5891 29.1374C76.5891 28.4473 76.7425 27.8243 77.0492 27.2684C77.3559 26.6934 77.7777 26.2046 78.3144 25.802C78.8703 25.3995 79.5029 25.0928 80.2121 24.8819C80.9213 24.6519 81.6689 24.5369 82.4548 24.5369C83.2408 24.5369 84.0075 24.6327 84.7551 24.8244C85.5027 25.0161 86.1928 25.294 86.8253 25.6582C87.477 26.0033 88.0426 26.4154 88.5218 26.8946L86.3365 29.3099C85.9915 28.984 85.5986 28.6869 85.1577 28.4186C84.736 28.1502 84.2951 27.9394 83.835 27.786C83.3749 27.6327 82.9628 27.556 82.5986 27.556C82.2727 27.556 81.9757 27.5847 81.7072 27.6422C81.4581 27.6997 81.2472 27.7956 81.0747 27.9298C80.9022 28.0448 80.768 28.1885 80.6721 28.3611C80.5955 28.5336 80.5571 28.7253 80.5571 28.9361C80.5571 29.147 80.605 29.3483 80.7009 29.54C80.8159 29.7316 80.9693 29.8946 81.1609 30.0288C81.3718 30.1438 81.6785 30.278 82.081 30.4313C82.5027 30.5847 83.0683 30.7572 83.7775 30.9489C84.6976 31.1981 85.4739 31.476 86.1065 31.7827C86.7582 32.0894 87.2758 32.444 87.6592 32.8466C87.9851 33.1916 88.2246 33.5845 88.378 34.0255C88.5314 34.4664 88.6081 34.9552 88.6081 35.4919C88.6081 36.4311 88.3396 37.265 87.803 37.9934C87.2854 38.7219 86.5666 39.297 85.6465 39.7186C84.7264 40.1403 83.6912 40.3512 82.5411 40.3512Z" fill="#7E7E7E"/>
<path d="M97.2987 40.3511C95.6501 40.3511 94.2029 40.0157 92.9569 39.3447C91.7301 38.6738 90.7716 37.7537 90.0816 36.5844C89.4106 35.4151 89.0752 34.0732 89.0752 32.5589C89.0752 31.3705 89.2668 30.2874 89.6503 29.3098C90.0337 28.3322 90.5704 27.4888 91.2605 26.7795C91.9505 26.0511 92.7653 25.4952 93.7045 25.1118C94.663 24.7093 95.6981 24.508 96.8099 24.508C97.845 24.508 98.8035 24.6997 99.6852 25.0831C100.567 25.4664 101.324 26.0032 101.957 26.6933C102.608 27.3642 103.107 28.1693 103.452 29.1085C103.797 30.0286 103.95 31.0254 103.912 32.0989L103.883 33.364H91.663L91.0017 30.8625H100.519L100.059 31.38V30.7475C100.021 30.2299 99.8481 29.7699 99.5414 29.3673C99.2539 28.9456 98.8801 28.6197 98.42 28.3897C97.96 28.1405 97.4424 28.0159 96.8674 28.0159C96.0239 28.0159 95.305 28.1789 94.7109 28.5047C94.1358 28.8306 93.6949 29.3098 93.3882 29.9424C93.0815 30.575 92.9281 31.3417 92.9281 32.2427C92.9281 33.1627 93.1198 33.9582 93.5032 34.6292C93.9058 35.3001 94.4617 35.8272 95.1709 36.2106C95.8994 36.5748 96.7523 36.7569 97.73 36.7569C98.4009 36.7569 99.0142 36.6515 99.5702 36.4406C100.126 36.2297 100.72 35.8656 101.353 35.348L103.308 38.0796C102.752 38.578 102.139 38.9997 101.468 39.3447C100.797 39.6706 100.107 39.9198 99.3977 40.0923C98.6885 40.2648 97.9887 40.3511 97.2987 40.3511Z" fill="#7E7E7E"/>
<path d="M105.491 40.0638V24.8533H109.401L109.516 27.9586L108.711 28.3037C108.922 27.6136 109.296 26.9906 109.833 26.4347C110.389 25.8596 111.05 25.3996 111.817 25.0545C112.584 24.7095 113.389 24.537 114.232 24.537C115.382 24.537 116.341 24.767 117.107 25.2271C117.893 25.6871 118.478 26.3868 118.861 27.3261C119.264 28.2462 119.465 29.3867 119.465 30.7477V40.0638H115.382V31.064C115.382 30.3739 115.286 29.7989 115.095 29.3388C114.903 28.8787 114.606 28.5433 114.203 28.3324C113.82 28.1216 113.341 28.0257 112.766 28.0449C112.306 28.0449 111.874 28.1216 111.472 28.2749C111.088 28.4091 110.753 28.6104 110.465 28.8787C110.197 29.1471 109.976 29.4538 109.804 29.7989C109.651 30.1439 109.574 30.5177 109.574 30.9202V40.0638H107.561C107.12 40.0638 106.727 40.0638 106.382 40.0638C106.037 40.0638 105.74 40.0638 105.491 40.0638Z" fill="#7E7E7E"/>
<path d="M127.893 40.3514C126.551 40.3514 125.353 40.016 124.299 39.345C123.264 38.6549 122.439 37.7252 121.826 36.5559C121.232 35.3674 120.935 33.9969 120.935 32.4442C120.935 30.9299 121.232 29.5785 121.826 28.39C122.439 27.1824 123.264 26.2431 124.299 25.5722C125.353 24.8821 126.551 24.537 127.893 24.537C128.602 24.537 129.283 24.6521 129.934 24.8821C130.605 25.093 131.2 25.3901 131.717 25.7734C132.254 26.1568 132.685 26.5881 133.011 27.0673C133.337 27.5274 133.519 28.0066 133.557 28.505L132.522 28.7063V18.7864H136.634V40.0639H132.752L132.58 36.5559L133.385 36.6422C133.347 37.1214 133.174 37.5814 132.867 38.0224C132.561 38.4633 132.148 38.8658 131.631 39.23C131.133 39.575 130.557 39.8529 129.906 40.0639C129.273 40.2555 128.602 40.3514 127.893 40.3514ZM128.813 36.9585C129.58 36.9585 130.251 36.7668 130.826 36.3834C131.401 36 131.851 35.4729 132.177 34.802C132.503 34.131 132.666 33.3452 132.666 32.4442C132.666 31.5625 132.503 30.7861 132.177 30.1152C131.851 29.4443 131.401 28.9171 130.826 28.5338C130.251 28.1504 129.58 27.9587 128.813 27.9587C128.046 27.9587 127.375 28.1504 126.8 28.5338C126.244 28.9171 125.804 29.4443 125.478 30.1152C125.171 30.7861 125.018 31.5625 125.018 32.4442C125.018 33.3452 125.171 34.131 125.478 34.802C125.804 35.4729 126.244 36 126.8 36.3834C127.375 36.7668 128.046 36.9585 128.813 36.9585Z" fill="#7E7E7E"/>
</g>
<defs>
<clipPath id="clip0_2080_14279">
<rect width="93.4484" height="23.0027" fill="white" transform="translate(43.2756 18.4987)"/>
</clipPath>
</defs>
</svg>

<svg xmlns="http://www.w3.org/2000/svg" width="180" height="60" fill="none" viewBox="0 0 180 60"><g fill="#7e7e7e" clip-path="url(#a)"><path d="M44.453 40.064V19.937h8.914q1.869 0 3.393.862a6.2 6.2 0 0 1 2.386 2.272q.892 1.437.892 3.278 0 1.811-.892 3.306a6.33 6.33 0 0 1-2.386 2.33q-1.524.862-3.393.862h-4.744v7.217zm11.415 0-5.118-9.086 4.428-.72 5.694 9.835zm-7.245-10.725h4.543q.776 0 1.351-.345.605-.374.92-1.007.316-.661.316-1.466 0-.862-.373-1.495a2.47 2.47 0 0 0-1.093-.978q-.72-.374-1.668-.374h-3.996zM69.23 40.351q-2.473 0-4.342-1.006-1.84-1.006-2.875-2.76-1.007-1.755-1.007-4.026 0-1.782.575-3.249a7.5 7.5 0 0 1 1.61-2.53 6.9 6.9 0 0 1 2.445-1.668 7.9 7.9 0 0 1 3.105-.604q1.553 0 2.876.575a6.6 6.6 0 0 1 2.271 1.61 6.8 6.8 0 0 1 1.495 2.416q.518 1.38.46 2.99l-.029 1.265h-12.22l-.661-2.501h9.517l-.46.517v-.632a2.54 2.54 0 0 0-.517-1.38 2.9 2.9 0 0 0-1.122-.978 3.2 3.2 0 0 0-1.552-.374q-1.266 0-2.157.489-.863.489-1.323 1.438-.46.948-.46 2.3 0 1.38.576 2.386a4.3 4.3 0 0 0 1.667 1.582q1.092.546 2.56.546a5.2 5.2 0 0 0 1.84-.316q.833-.316 1.782-1.093l1.955 2.732q-.834.747-1.84 1.265-1.005.489-2.07.748a8.9 8.9 0 0 1-2.099.258M82.541 40.351q-2.128 0-3.795-.69-1.64-.719-2.646-1.955l2.56-2.185q.862.948 1.955 1.38a6.3 6.3 0 0 0 2.185.402q.43 0 .776-.086.374-.114.633-.287.258-.202.374-.46.144-.288.143-.604 0-.633-.517-.978-.288-.173-.892-.374-.603-.23-1.552-.489-1.467-.373-2.502-.862-1.005-.517-1.61-1.15a4.9 4.9 0 0 1-.805-1.294 4.6 4.6 0 0 1-.259-1.582q0-1.035.46-1.869a4.4 4.4 0 0 1 1.265-1.466 6.2 6.2 0 0 1 1.898-.92 7.2 7.2 0 0 1 2.243-.345q1.179 0 2.3.287 1.122.288 2.07.834a7 7 0 0 1 1.697 1.237l-2.186 2.415a7 7 0 0 0-1.178-.891 6 6 0 0 0-1.323-.633q-.69-.23-1.236-.23-.489 0-.892.086-.374.087-.632.288a1.24 1.24 0 0 0-.403.431 1.4 1.4 0 0 0-.115.575q0 .316.144.604.172.288.46.489.315.172.92.402.632.23 1.697.518 1.38.374 2.328.834.978.46 1.553 1.064.49.517.719 1.178.23.662.23 1.467 0 1.41-.805 2.501-.776 1.093-2.156 1.726-1.38.632-3.106.632M97.299 40.351q-2.473 0-4.342-1.006-1.84-1.007-2.875-2.76-1.007-1.755-1.007-4.026 0-1.782.575-3.25a7.5 7.5 0 0 1 1.61-2.53 6.9 6.9 0 0 1 2.444-1.667 7.9 7.9 0 0 1 3.106-.604q1.552 0 2.875.575a6.6 6.6 0 0 1 2.272 1.61 6.8 6.8 0 0 1 1.495 2.415q.517 1.38.46 2.99l-.029 1.266h-12.22l-.661-2.501h9.517l-.46.517v-.633a2.54 2.54 0 0 0-.518-1.38 2.9 2.9 0 0 0-1.121-.977 3.2 3.2 0 0 0-1.553-.374q-1.265 0-2.156.489-.862.489-1.323 1.437-.46.95-.46 2.3 0 1.38.575 2.387.605 1.006 1.668 1.582 1.092.546 2.559.546a5.2 5.2 0 0 0 1.84-.316q.834-.316 1.783-1.093l1.955 2.732a8.7 8.7 0 0 1-1.84 1.265q-1.007.489-2.07.747a9 9 0 0 1-2.1.26M105.491 40.064v-15.21h3.91l.115 3.105-.805.345a4.6 4.6 0 0 1 1.122-1.87 6.4 6.4 0 0 1 1.984-1.38 5.8 5.8 0 0 1 2.415-.517q1.725 0 2.875.69 1.18.69 1.754 2.1.604 1.38.604 3.42v9.317h-4.083v-9q0-1.035-.287-1.725-.288-.69-.892-1.007-.575-.315-1.437-.287-.69 0-1.294.23a2.8 2.8 0 0 0-1.007.604 3.5 3.5 0 0 0-.661.92q-.23.518-.23 1.121v9.144h-4.083M127.893 40.351q-2.013 0-3.594-1.006-1.553-1.035-2.473-2.79-.891-1.782-.891-4.11 0-2.273.891-4.055.92-1.812 2.473-2.818 1.581-1.035 3.594-1.035 1.064 0 2.041.345 1.007.316 1.783.891a5.2 5.2 0 0 1 1.294 1.294q.489.69.546 1.438l-1.035.201v-9.92h4.112v21.278h-3.882l-.172-3.508.805.086q-.057.72-.518 1.38-.46.662-1.236 1.208a6.6 6.6 0 0 1-1.725.834 7 7 0 0 1-2.013.287m.92-3.392q1.15 0 2.013-.576.862-.575 1.351-1.581t.489-2.358q0-1.323-.489-2.329t-1.351-1.581-2.013-.575q-1.15 0-2.013.575-.834.575-1.322 1.581-.46 1.007-.46 2.33 0 1.35.46 2.357.488 1.006 1.322 1.581.862.575 2.013.575"/></g><defs><clipPath id="a"><path fill="#fff" d="M43.276 18.499h93.448v23.003H43.276z"/></clipPath></defs></svg>
